!!!OTL: 777. Das Grab.
!!!COM: H. G. Naegeli
!!!ODT: 1822
!!!ARE: Europa, Mitteleuropa, Deutschland
!!!SCT: B0777
!!!TXL: @@DE
!!!YEM: Copyright 1995, estate of Helmut Schaffrath.
**kern	**text
*ICvox	*
*Ivox	*
*clefG2	*
*M4/4	*
*met(c)	*
*k[b-]	*
*F:	*
!LO:TX:a:t=Langſam.	!
{4c	Das
=1	=1
4.f	Grab
8g	iſt
4a	tieſ
4a	und
=2	=2
2g	ſtil-
4f}	-le
{4f	und
=3	=3
4.b-	ſchauder-
16aL	.
16gJ	.
4f	-haft
4g	ſein
=4	=4
(4gnqq	.
2a)	Rand
4r}	.
{4f	es
=5	=5
4.a	deckt
8b-	mit
4cc	ſchwarʒer
4cc	.
=6	=6
2b-	Hül-
4a}	-le
{4a	ein
=7	=7
4g	un-
4f	-be-
4g	-kanntes
4e	.
=8	=8
2f	Land.
4r}	.
==	==
!!!AGN: Trost - Lied, Tod, Klage, religioes
!!!ONB: ESAC (Essen Associative Code) Database: BOEHME
!!!AMT: simple quadruple
!!!AIN: vox
!!!EED: Helmut Schaffrath
!!!EEV: 1.0
!!!GTL: Religioese Lieder
!!@@COMMENT:"Gedicht von Joh. Gaudenʒ v. Salis-Seewis 1783. Melodie von H. G. Nägeli 1822.
!!Ʒu beʒweifeln iſt, daß dieſer Text viel geſungen worden iſt. Der Koran ſagt: "Gräber ſind die
!!Bergſpitʒen einer fernen, ſchönen Welt". Das iſt gewiß troſtvoller und poetiſcher als der Jnhalt
!!des weiwerbreiteten Liedes von Salis. - Viel gebraucht als Denkſpruch in geiſtl. Reden iſt die Schlußſtrophe."
!!@@END:
!!!Text: J. G. von Salis-Seewis
!!!URL-scan: https://archive.org/details/BoehmeVtLieder1895/page/n619/mode/2up
!!!ENC: Anna Maria Matuszewska
!!!EEV: 2024/19/07
*-	*-
